X:1
T:Title
%%score [ 1 2 3 4 ]
L:1/8
Q:1/4=120
M:3/4
K:Bb
V:1 treble nm="Discantus" snm="D"
V:2 treble nm="Altus" snm="A"
V:3 treble-8 nm="Tenor" snm="T"
V:4 bass nm="Bassus" snm="B"
V:1
 z4 G2 | G4 A2 | B4 c2 | d4 c2 | B4 B2 | B4 B2 | B4 c2 | d2 c4 | B4 :| z2 z2 B2 | B4 B2 | A4 B2 | %12
w: Nun,|lob, mein|Seel, den|Her- *|ren, was|in mir|ist, den|Nam- en|sein!|Hat|dir dein|Sünd ver-|
w: Sein|Wohl- tat|tut Er|mehr- *|en, ver-|giß es|nit, o|Her- ze|mein.||||
 G4 F2 | G4 B2 | A4 G2 | A6 | F4 =E2 | F6 | z2 z2 F2 | G4 G2 | A4 A2 | B6 | B4 B2 | G4 G2 | B4 B2 | %25
w: ge- *|ben und|heilt dein|Schwach-|* heit|groß.|Er|rett' dein|ar- mes|Le-|ben, nimmt|dich in|sei- nen|
w: |||||||||||||
 A6 | z2 z2 A2 | B4 B2 | c4 c2 | A6 | B4 B2 | A4 A2 | F4 =E2 | F6 | z2 z2 F2 | G4 G2 | A4 B2 | A6 | %38
w: Schoß!|Mit|reich- em|Trost be-|schüt-|tet, ver-|jüngt, dem|Ad- ler|gleich!|Der|Kön'g schafft|Recht, be-|hü-|
w: |||||||||||||
 G4 A2 | B4 A2 | d6 | B4 A2 | B6 |] %43
w: tet die|Lei- den-|den|_ im|Reich.|
w: |||||
V:2
 z4 D2 | D4 F2 | G4 A2 | B4 A2 | F4 F2 | F4 F2 | F4 F2 | DE F4 | D4 :| z2 z2 F2 | G4 F2 | F6 | %12
w: Nun,|lob, mein|Seel, den|Her- *|ren, was|in mir|ist, den|Nam- * en|sein!|Hat|dir dein|Sünd|
w: Sein|Wohl- tat|tut Er|mehr- *|en, ver-|giß es|nit, o|Her- * ze|mein.||||
 E2 D4 | B,4 B,2 | F4 =E2 | F6 | D2 C4 | A,6 | z2 z2 C2 | D4 =E2 | F4 F2 | F6 | G4 G2 | B4 B2 | %24
w: ver- ge-|ben und|heilt dein|Schwach-|* heit|groß.|Er|rett' dein|ar- mes|Le-|ben, nimmt|dich in|
w: ||||||||||||
 F4 F2 | F6 | z2 z2 F2 | F4 G2 | G4 C2 | C6 | G4 F2 | F4 F2 | D2 C4 | A,6 | z2 z2 D2 | D4 =E2 | %36
w: sei- nen|Schoß!|Mit|reich- em|Trost be-|schüt-|tet, ver-|jüngt, dem|Ad- ler|gleich!|Der|Kön'g schafft|
w: ||||||||||||
 F4 B,2 | F6 | =E4 F2 | G4 A2 | B6 | G2 F4 | D6 |] %43
w: Recht, be-|hü-|tet die|Lei- den-|den|_ im|Reich.|
w: |||||||
V:3
 z4 G2 | B4 A2 | G4 F2 | B4 c2 | d4 d2 | d4 d2 | d4 c2 | B4 A2 | B4 :| z2 z2 B2 | B4 d2 | c4 d2 | %12
w: Nun,|lob, mein|Seel, den|Her- *|ren, was|in mir|ist, den|Nam- en|sein!|Hat|dir dein|Sünd ver-|
w: Sein|Wohl- tat|tut Er|mehr- *|en, ver-|giß es|nit, o|Her- ze|mein.||||
 B2 A4 | G4 G2 | c4 c2 | c4 A2 | B2 G4 | F6 | z2 z2 F2 | B4 B2 | c4 c2 | d6 | B4 B2 | e4 e2 | %24
w: ge- *|ben und|heilt dein|Schwach- *|* heit|groß.|Er|rett' dein|ar- mes|Le-|ben, nimmt|dich in|
w: ||||||||||||
 d4 d2 | c6 | z2 z2 c2 | d4 d2 | e4 e2 | f6 | B4 d2 | c4 F2 | A2 G4 | F6 | z2 z2 F2 | B4 B2 | %36
w: sei- nen|Schoß!|Mit|reich- em|Trost be-|schüt-|tet, ver-|jüngt, dem|Ad- ler|gleich!|Der|Kön'g schafft|
w: ||||||||||||
 A4 G2 | c6 | c4 d2 | e4 d2 | B3 A Bc | d2 c4 | B6 |] %43
w: Recht, be-|hü-|tet die|Lei- den-|den _ _ _|_ im|Reich.|
w: |||||||
V:4
 z4 G,2 | G,4 F,2 | G,4 A,2 | G,4 A,2 | B,4 B,2 | B,4 B,2 | B,4 A,2 | B,4 F,2 | B,,4 :| z2 z2 B,2 | %10
w: Nun,|lob, mein|Seel, den|Her- *|ren, was|in mir|ist, den|Nam- en|sein!|Hat|
w: Sein|Wohl- tat|tut Er|mehr- *|en, ver-|giß es|nit, o|Her- ze|mein.||
 G,4 B,2 | F,4 B,,2 | C,2 D,4 | E,4 G,2 | F,4 C,2 | F,6 | B,,2 C,4 | C6 | z2 z2 C2 | G,4 G,2 | %20
w: dir dein|Sünd ver-|ge- *|ben und|heilt dein|Schwach-|* heit|groß.|Er|rett' dein|
w: ||||||||||
 F,4 F,2 | B,6 | G,4 G,2 | E,4 E,2 | B,4 B,2 | F,6 | z2 z2 F,2 | B,4 G,2 | C4 C2 | F,6 | G,4 B,2 | %31
w: ar- mes|Le-|ben, nimmt|dich in|sei- nen|Schoß!|Mit|reich- em|Trost be-|schüt-|tet, ver-|
w: |||||||||||
 F,4 D,2 | F,2 C,4 | F,6 | z2 z2 D,2 | G,4 G,2 | D,4 G,2 | F,6 | C,4 F,2 | E,4 F,2 | G,3 F, G,A, | %41
w: jüngt, dem|Ad- ler|gleich!|Der|Kön'g schafft|Recht, be-|hü-|tet die|Lei- den-|den _ _ _|
w: ||||||||||
 B,2 F,4 | B,,6 |] %43
w: _ im|Reich.|
w: ||

